X: 10
T:Jockie to the Fair, Brackley 1
M:6/8
L:1/8
A:Brackley
P:A(A2B3)4
K:G
P:A
D|G2A B2c|d2g d2c|BdB G2A |c2B A2A|
d2d efg|a2f d2g|fed AB^c|d3  d2 ||
P:B
d|g2d g2d|cBc B2d|g2d g2d |cBc B2d|
e2f gfe|d2c Bcd|e2c A2F |G3  G2 ||
